X: 354
T: The Praises of Limerick
M:C
L:1/8
B:O'Neill's 354
N:"Animated."
N:"collected by Mrs. Fitzgerad"
Z:Transcribed by Chris Falt, cfalt@trytel.com
K:Gm
d>c | B2A2 G3G | AGFD F2Dc | d2d2 c2Bc | d=efd g2dc |
B2A2 G3G | AGFD F2dc | B2AG ^FGAF | G4 G2 ||
z2 | d3c db2a | gfdc d2z2 | f3d c2Bc | d=efd g2dc |
B2A2 G3G | AGFD F2dc | B2AG ^FGAF | G4 G2 ||


